X: 283
T:The Flowres of the Forrest
S:Skene MS via Dauney
G:lament, arranged for lute
M:4/4
L:1/8
Q:1/4=72
K:D
[d2D2] d2 efab     | afed         B2A2     |\
[d2D2] d2 efab     | afed        [d4A4D4] :|
 AB   =c2 Bc [d2D2]|[A2D2]  fe    d/B/A3   |\
[A2D2] Bd b2  af   |[e3A,3] d/e/ [d4A4D4] |]

That startling shift is from the lydian/major/mixolydian pentatonic mode
direct to the mixolydian; the gap at the fourth (G) is not filled in first,
as a move through the major/mixolydian hexatonic mode would require.  The
tune is from a manuscript of lute music predating the general use of the
fiddle, and from the Borders, where the bagpipe had a long history.  It
may even be as old as the event it is thought to commemorate, the Battle
of Flodden in 1513; perhaps it records an old and local kind of tonality.
The basic melody has a nine-note range from A to b, suggesting a chanter
with either one extra note above a one-octave A dorian scale, or two above
a G mixolydian scale.

This tune, noted down in the Borders around 1800, shifts in a similarly
emphatic way from minor to major, and more subtly back again:

